X:1
T:More Like the Master
T:More Like the Master
T:Charles H. Gabriel, 1906
T:C. H. G., 1906
T:PUBLIC DOMAIN
T:PUBLIC DOMAIN
C:Charles H. Gabriel, 1906
Z:C. H. G., 1906
Z:PUBLIC DOMAIN
%%score ( 1 2 3 ) ( 4 5 6 )
L:1/8
Q:1/4=120
M:6/8
K:Db
V:1 treble nm="Treble"
V:2 treble 
V:3 treble 
V:4 bass nm="Bass"
V:5 bass 
V:6 bass 
V:1
 [FA]3 [GB]2 [FA] | [FA]3 [DF]3 | [FA]2 [EG] [EG]2 [=DF] | [EG]6 | [GB]3 [Gc]2 [GB] | [GB]3 [CE]3 | %6
w: 1.~More like the|Mas- ter|I would ev- er|be,|More of His|meek- ness,|
w: 2.~More like the|Mas- ter|is my dai- ly|prayer;|More strength to|car- ry|
w: 3.~More like the|Mas- ter|I would live and|grow;|More of His|love to|
 [DA]2 [DB] [GA]2 [GB] | [FA]6 | [Fd]3 [Ec]2 [Ge] | [Fd]3 [DF]2 [FA] | [Ac]2 [GB] [GB]2 [G=A] | %11
w: more hu- mil- i-|ty;|More zeal to|la- bor, more|cour- age to be|
w: cross- es I must|bear;|More ear- nest|ef- fort to|bring His king- dom|
w: oth- ers I would|show;|More self- de-|ni- al, like|His in Ga- li-|
 [GB]6 | [=GB]3 [Gc]2 [Gd] | [Ae]3 [Ec]2 [EA] | [Ec]2 [Ed] [Ec]2 [DB] | [CA]6 || %16
w: true,|More con- se-|cra- tion for|work He bids me|do.|
w: in;|More of His|Spir- it, the|wan- der- er to|win.|
w: lee,|More like the|Mas- ter I|long to ev- er|be.|
"^Refrain" d3 c2 B | F3 F2 A | B2 A B2 d | c6 | d3 c2 B | G3 G2 A | B2 c B2 c | F6 | d3 c2 B | %25
w: Take heart, oh,|take heart, I|would be be a-|Thine|Take heart, oh,|take heart, and|make it it Thine|all|Purge me from|
w: |||||||||
w: |||||||||
 F3 F2 A | B2 F B2 A | G6 | =G3 A2 B | (c3 d2) G | [DF]2 [DF] [CE]2 [CE] | D6 |] %32
w: ev- sin, O|Lord, I now im-|plore,|Wash me and|keep _ me|Thine for- ev- er-|more.|
w: |||||||
w: |||||||
V:2
 x6 | x6 | x6 | x6 | x6 | x6 | x6 | x6 | x6 | x6 | x6 | x6 | x6 | x6 | x6 | z D=D E F G || x6 | %17
 x6 | x6 | x6 | x6 | x6 | x6 | x6 | x6 | x6 | x6 | x6 | x6 | x6 | x6 | x6 |] %32
V:3
 x6 | x6 | x6 | x6 | x6 | x6 | x6 | x6 | x6 | x6 | x6 | x6 | x6 | x6 | x6 | x6 || F2 F F2 F | %17
w: |||||||||||||||||
 D2 D D2 F | F3 F3 | G2 G G3 | G2 G G2 G | E2 E E2 F | G3 G3 | D2 D D3 | F2 F F2 F | D2 D D2 D | %26
w: |||||||||
 =D3 F3 | E2 E E3 | E2 E E2 E | E2 E D2 D | x6 | D6 |] %32
w: Lord, I|now im- plore,|Wash and keep, oh,|wash and keep me|||
V:4
 [D,D]3 [D,D]2 [D,D] | [D,D]3 [D,A,]3 | [D,A,]2 [A,,D] [A,,A,]2 [A,,A,] | [A,,A,]6 | %4
 [A,,C]3 [A,,C]2 [A,,C] | [A,,C]3 [G,A,]3 | [F,A,]2 [F,A,] [E,C]2 [A,,C] | [D,D]6 | %8
 [D,A,]3 [D,A,]2 [D,A,] | [D,A,]3 [D,A,]2 [D,D] | [G,D]2 [G,D] [G,D]2 [G,C] | [G,D]6 | %12
 (([E,D]2 [D,E])) [C,E]2 [B,,E] | [A,,C]3 [A,,A,]2 [C,A,] | [E,A,]2 [E,B,] [E,A,]2 [E,=G,] | %15
 [A,,A,]6 || [D,A,]2 [D,A,] [D,A,]2 [D,A,] | [D,A,]2 [D,A,] [D,A,]2 [D,D] | [D,D]3 [D,D]3 | %19
 [E,A,]2 [E,A,] [E,A,]3 | [A,E]2 [A,E] [A,E]2 [A,C] | [A,C]2 [A,C] [A,C]2 A, | [A,,C]3 [A,,C]3 | %23
 [D,D]2 [D,A,] [D,A,]3 | [D,A,]2 [D,A,] [D,A,]2 [D,A,] | [D,A,]2 [D,A,] [D,A,]2 [D,F,] | %26
 (F,2 B,) [=D,B,]3 | [E,B,]2 [E,B,] [E,B,]3 | [E,B,]2 [E,B,] [C,A,]2 [E,=G,] | %29
 A,2 [G,A,] [F,A,]2 [G,B,] | A,2 A, [A,,G,]2 [A,,G,] | [D,F,]6 |] %32
V:5
 x6 | x6 | x6 | x6 | x6 | x6 | x6 | x6 | x6 | x6 | x6 | x6 | x6 | x6 | x6 | z B,=B, C =D E || x6 | %17
 x6 | x6 | x6 | x6 | x6 | x6 | x6 | x6 | x6 | x6 | x6 | x6 | x6 | x6 | x6 |] %32
V:6
 x6 | x6 | x6 | x6 | x6 | x6 | x6 | x6 | x6 | x6 | x6 | x6 | x6 | x6 | x6 | x6 || x6 | x6 | x6 | %19
 x6 | x6 | z3 z2 A, | x6 | x6 | x6 | x6 | B,,3 z3 | x6 | x6 | A,2 z z3 | A,2 A, z3 | x6 |] %32

